public/img/svg/advantage-3.svg

<svg fill="none" height="73" viewBox="0 0 72 73" width="72" xmlns="http://www.w3.org/2000/svg"><g fill="#000"><path d="m37.1676 4.00796h-2.3351c-.2581 0-.5056-.10251-.688-.28498-.1825-.18247-.285-.42995-.285-.68799 0-.25805.1025-.50553.285-.688.1824-.18247.4299-.28498.688-.28498h2.3351c.258 0 .5055.10251.688.28498s.285.42995.285.688c0 .25804-.1025.50552-.285.68799s-.43.28498-.688.28498z"/><path d="m45.7298 13.7377h-19.4595c-.258 0-.5055-.1025-.688-.285-.1824-.1825-.2849-.4299-.2849-.688v-9.72972c0-.25804.1025-.50552.2849-.68799.1825-.18247.43-.28498.688-.28498h2.919c.258 0 .5055.10251.688.28498.1824.18247.2849.42995.2849.68799 0 .25805-.1025.50553-.2849.688-.1825.18247-.43.28498-.688.28498h-1.946v7.78374h17.5135v-7.78374h-1.9459c-.2581 0-.5055-.10251-.688-.28498s-.285-.42995-.285-.688c0-.25804.1025-.50552.285-.68799s.4299-.28498.688-.28498h2.9189c.258 0 .5055.10251.688.28498s.285.42995.285.68799v9.72972c0 .2581-.1025.5055-.285.688s-.43.285-.688.285z"/><path d="m36 40.0079c-.258 0-.5054-.1026-.6879-.285l-8.7567-8.7568c-.0905-.0904-.1622-.1977-.2112-.3158s-.0742-.2447-.0742-.3726c0-.1278.0252-.2545.0742-.3726s.1207-.2254.2112-.3158l8.7567-8.7567c.1859-.1758.4321-.2738.6879-.2738.2559 0 .502.098.6879.2738l8.7568 8.7567c.0905.0904.1622.1977.2112.3158.0489.1181.0741.2448.0741.3726 0 .1279-.0252.2545-.0741.3726-.049.1181-.1207.2254-.2112.3158l-8.7568 8.7568c-.1824.1824-.4298.285-.6879.285zm-7.3809-9.7297 7.3809 7.382 7.381-7.382-7.381-7.381z"/><path d="m36 22.4947c-.2581 0-.5056-.1025-.688-.285-.1825-.1824-.285-.4299-.285-.688v-8.7567c0-.2581.1025-.5056.285-.688.1824-.1825.4299-.285.688-.285.258 0 .5055.1025.688.285.1824.1824.2849.4299.2849.688v8.7567c0 .2581-.1025.5056-.2849.688-.1825.1825-.43.285-.688.285z"/><path d="m66.1622 51.6837h-14.5946c-.2581 0-.5056-.1025-.688-.2849-.1825-.1825-.285-.43-.285-.688v-9.7298c0-.258.1025-.5055.285-.688.1824-.1824.4299-.2849.688-.2849h14.5946c.258 0 .5055.1025.688.2849.1824.1825.2849.43.2849.688v9.7298c0 .258-.1025.5055-.2849.688-.1825.1824-.43.2849-.688.2849zm-13.6216-1.9459h12.6486v-7.7838h-12.6486z"/><path d="m20.4324 51.6837h-14.59456c-.25805 0-.50553-.1025-.68799-.2849-.18247-.1825-.28498-.43-.28498-.688v-9.7298c0-.258.10251-.5055.28498-.688.18246-.1824.42994-.2849.68799-.2849h14.59456c.2581 0 .5056.1025.688.2849.1825.1825.285.43.285.688v9.7298c0 .258-.1025.5055-.285.688-.1824.1824-.4299.2849-.688.2849zm-13.62159-1.9459h12.64869v-7.7838h-12.64869z"/><path d="m35.9999 70.1702c-1.3471 0-2.6639-.3994-3.7839-1.1478s-1.993-1.8121-2.5085-3.0566-.6503-2.6139-.3875-3.9351.9114-2.5348 1.8639-3.4873 2.1661-1.6011 3.4873-1.8639c1.3211-.2628 2.6906-.128 3.9351.3875s2.3082 1.3885 3.0566 2.5085c.7484 1.1201 1.1478 2.4369 1.1478 3.7839-.0021 1.8057-.7203 3.5369-1.9971 4.8137s-3.008 1.9951-4.8137 1.9971zm0-11.6757c-.9622 0-1.9028.2854-2.7028.8199-.8.5346-1.4235 1.2944-1.7917 2.1833-.3683.8889-.4646 1.8671-.2769 2.8108s.6511 1.8105 1.3314 2.4909c.6804.6804 1.5472 1.1437 2.4909 1.3314s1.9219.0914 2.8108-.2768 1.6487-.9918 2.1833-1.7918c.5345-.8.8199-1.7406.8199-2.7028-.0016-1.2898-.5146-2.5263-1.4266-3.4383s-2.1485-1.425-3.4383-1.4266z"/><path d="m36 54.0752c-.2581 0-.5056-.1025-.688-.285-.1825-.1824-.285-.4299-.285-.688v-14.0672c0-.2581.1025-.5055.285-.688.1824-.1825.4299-.285.688-.285.258 0 .5055.1025.688.285.1824.1825.2849.4299.2849.688v14.0672c0 .2581-.1025.5056-.2849.688-.1825.1825-.43.285-.688.285z"/><path d="m36 54.0754c-.2579.0002-.5053-.102-.6879-.2841l-3.9123-3.9124c-.1826-.1825-.2852-.4302-.2852-.6883 0-.2582.1026-.5059.2852-.6884.1825-.1826.4301-.2852.6883-.2852s.5058.1026.6884.2852l3.2235 3.2244 3.2234-3.2244c.1826-.1826.4302-.2852.6884-.2852s.5058.1026.6884.2852c.1826.1825.2851.4302.2851.6884 0 .2581-.1025.5058-.2851.6883l-3.9123 3.9124c-.1826.1821-.43.2843-.6879.2841z"/><path d="m35.9999 22.4946c-.258-.0001-.5055-.1026-.6879-.2851l-3.1622-3.1622c-.1772-.1835-.2753-.4292-.2731-.6843.0023-.2552.1046-.4992.285-.6796s.4244-.2827.6795-.2849.5009.0958.6844.2731l2.4743 2.4742 2.4743-2.4742c.1835-.1773.4292-.2753.6844-.2731.2551.0022.4991.1045.6795.2849s.2827.4244.2849.6796c.0023.2551-.0958.5008-.2731.6843l-3.1621 3.1622c-.1824.1825-.4299.285-.6879.2851z"/><path d="m58.8649 37.8111c-.2581 0-.5055-.1025-.688-.2849-.1825-.1825-.285-.43-.285-.688v-5.5868h-13.1351c-.2581 0-.5055-.1025-.688-.285s-.285-.43-.285-.688c0-.2581.1025-.5055.285-.688s.4299-.285.688-.285h14.1081c.258 0 .5055.1025.688.285s.285.4299.285.688v6.5598c0 .258-.1025.5055-.285.688-.1825.1824-.43.2849-.688.2849z"/><path d="m58.8648 37.8111c-.258-.0001-.5055-.1026-.6879-.2851l-2.4645-2.4646c-.1827-.1824-.2855-.4299-.2856-.6881-.0002-.2582.1022-.5059.2846-.6886s.43-.2855.6882-.2856c.2582-.0002.5059.1022.6886.2846l1.7766 1.7786 1.7776-1.7786c.1826-.1824.4302-.2849.6883-.2848s.5056.1027.688.2853.2849.4301.2848.6882-.1027.5056-.2853.6881l-2.4655 2.4645c-.0902.0905-.1975.1624-.3155.2115s-.2446.0744-.3724.0746z"/><path d="m13.1351 37.8111c-.2581 0-.5055-.1025-.688-.2849-.1825-.1825-.285-.43-.285-.688v-6.5598c0-.2581.1025-.5055.285-.688s.4299-.285.688-.285h14.1081c.258 0 .5055.1025.688.285s.285.4299.285.688c0 .258-.1025.5055-.285.688s-.43.285-.688.285h-13.1351v5.5868c0 .258-.1026.5055-.285.688-.1825.1824-.43.2849-.688.2849z"/><path d="m13.1352 37.8111c-.258-.0001-.5055-.1026-.6879-.2851l-2.46453-2.4646c-.09047-.0903-.16225-.1976-.21126-.3156-.04901-.1181-.07428-.2447-.07437-.3725-.00018-.2582.10221-.5059.28465-.6886.18241-.1827.43001-.2855.68821-.2856.2582-.0002.5059.1022.6885.2846l1.7767 1.7786 1.7776-1.7786c.1826-.1824.4302-.2849.6883-.2848s.5056.1027.688.2853.2849.4301.2848.6882-.1027.5056-.2853.6881l-2.4655 2.4645c-.0903.0905-.1975.1624-.3155.2115s-.2446.0744-.3724.0746z"/></g></svg>

<svg width="72" height="73" viewBox="0 0 72 73" fill="none" xmlns="http://www.w3.org/2000/svg">
<path d="M37.1676 4.00796H34.8325C34.5744 4.00796 34.3269 3.90545 34.1445 3.72298C33.962 3.54051 33.8595 3.29303 33.8595 3.03499C33.8595 2.77694 33.962 2.52946 34.1445 2.34699C34.3269 2.16452 34.5744 2.06201 34.8325 2.06201H37.1676C37.4256 2.06201 37.6731 2.16452 37.8556 2.34699C38.0381 2.52946 38.1406 2.77694 38.1406 3.03499C38.1406 3.29303 38.0381 3.54051 37.8556 3.72298C37.6731 3.90545 37.4256 4.00796 37.1676 4.00796Z" fill="black"/>
<path d="M45.7298 13.7377H26.2703C26.0123 13.7377 25.7648 13.6352 25.5823 13.4527C25.3999 13.2702 25.2974 13.0228 25.2974 12.7647V3.03498C25.2974 2.77694 25.3999 2.52946 25.5823 2.34699C25.7648 2.16452 26.0123 2.06201 26.2703 2.06201H29.1893C29.4473 2.06201 29.6948 2.16452 29.8773 2.34699C30.0597 2.52946 30.1622 2.77694 30.1622 3.03498C30.1622 3.29303 30.0597 3.54051 29.8773 3.72298C29.6948 3.90545 29.4473 4.00796 29.1893 4.00796H27.2433V11.7917H44.7568V4.00796H42.8109C42.5528 4.00796 42.3054 3.90545 42.1229 3.72298C41.9404 3.54051 41.8379 3.29303 41.8379 3.03498C41.8379 2.77694 41.9404 2.52946 42.1229 2.34699C42.3054 2.16452 42.5528 2.06201 42.8109 2.06201H45.7298C45.9878 2.06201 46.2353 2.16452 46.4178 2.34699C46.6003 2.52946 46.7028 2.77694 46.7028 3.03498V12.7647C46.7028 13.0228 46.6003 13.2702 46.4178 13.4527C46.2353 13.6352 45.9878 13.7377 45.7298 13.7377Z" fill="black"/>
<path d="M36 40.0079C35.742 40.0079 35.4946 39.9053 35.3121 39.7229L26.5554 30.9661C26.4649 30.8757 26.3932 30.7684 26.3442 30.6503C26.2952 30.5322 26.27 30.4056 26.27 30.2777C26.27 30.1499 26.2952 30.0232 26.3442 29.9051C26.3932 29.787 26.4649 29.6797 26.5554 29.5893L35.3121 20.8326C35.498 20.6568 35.7442 20.5588 36 20.5588C36.2559 20.5588 36.502 20.6568 36.6879 20.8326L45.4447 29.5893C45.5352 29.6797 45.6069 29.787 45.6559 29.9051C45.7048 30.0232 45.73 30.1499 45.73 30.2777C45.73 30.4056 45.7048 30.5322 45.6559 30.6503C45.6069 30.7684 45.5352 30.8757 45.4447 30.9661L36.6879 39.7229C36.5055 39.9053 36.2581 40.0079 36 40.0079ZM28.6191 30.2782L36 37.6602L43.381 30.2782L36 22.8972L28.6191 30.2782Z" fill="black"/>
<path d="M36 22.4947C35.7419 22.4947 35.4944 22.3922 35.312 22.2097C35.1295 22.0273 35.027 21.7798 35.027 21.5217V12.765C35.027 12.5069 35.1295 12.2594 35.312 12.077C35.4944 11.8945 35.7419 11.792 36 11.792C36.258 11.792 36.5055 11.8945 36.688 12.077C36.8704 12.2594 36.9729 12.5069 36.9729 12.765V21.5217C36.9729 21.7798 36.8704 22.0273 36.688 22.2097C36.5055 22.3922 36.258 22.4947 36 22.4947Z" fill="black"/>
<path d="M66.1622 51.6837H51.5676C51.3095 51.6837 51.062 51.5812 50.8796 51.3988C50.6971 51.2163 50.5946 50.9688 50.5946 50.7108V40.981C50.5946 40.723 50.6971 40.4755 50.8796 40.293C51.062 40.1106 51.3095 40.0081 51.5676 40.0081H66.1622C66.4202 40.0081 66.6677 40.1106 66.8502 40.293C67.0326 40.4755 67.1351 40.723 67.1351 40.981V50.7108C67.1351 50.9688 67.0326 51.2163 66.8502 51.3988C66.6677 51.5812 66.4202 51.6837 66.1622 51.6837ZM52.5406 49.7378H65.1892V41.954H52.5406V49.7378Z" fill="black"/>
<path d="M20.4324 51.6837H5.83784C5.57979 51.6837 5.33231 51.5812 5.14985 51.3988C4.96738 51.2163 4.86487 50.9688 4.86487 50.7108V40.981C4.86487 40.723 4.96738 40.4755 5.14985 40.293C5.33231 40.1106 5.57979 40.0081 5.83784 40.0081H20.4324C20.6905 40.0081 20.938 40.1106 21.1204 40.293C21.3029 40.4755 21.4054 40.723 21.4054 40.981V50.7108C21.4054 50.9688 21.3029 51.2163 21.1204 51.3988C20.938 51.5812 20.6905 51.6837 20.4324 51.6837ZM6.81081 49.7378H19.4595V41.954H6.81081V49.7378Z" fill="black"/>
<path d="M35.9999 70.1702C34.6528 70.1702 33.336 69.7708 32.216 69.0224C31.096 68.274 30.223 67.2103 29.7075 65.9658C29.192 64.7213 29.0572 63.3519 29.32 62.0307C29.5828 60.7095 30.2314 59.4959 31.1839 58.5434C32.1364 57.5909 33.35 56.9423 34.6712 56.6795C35.9923 56.4167 37.3618 56.5515 38.6063 57.067C39.8508 57.5825 40.9145 58.4555 41.6629 59.5755C42.4113 60.6956 42.8107 62.0124 42.8107 63.3594C42.8086 65.1651 42.0904 66.8963 40.8136 68.1731C39.5368 69.4499 37.8056 70.1682 35.9999 70.1702ZM35.9999 58.4945C35.0377 58.4945 34.0971 58.7799 33.2971 59.3144C32.4971 59.849 31.8736 60.6088 31.5054 61.4977C31.1371 62.3866 31.0408 63.3648 31.2285 64.3085C31.4162 65.2522 31.8796 66.119 32.5599 66.7994C33.2403 67.4798 34.1071 67.9431 35.0508 68.1308C35.9945 68.3185 36.9727 68.2222 37.8616 67.854C38.7505 67.4858 39.5103 66.8622 40.0449 66.0622C40.5794 65.2622 40.8648 64.3216 40.8648 63.3594C40.8632 62.0696 40.3502 60.8331 39.4382 59.9211C38.5262 59.0091 37.2897 58.4961 35.9999 58.4945Z" fill="black"/>
<path d="M36 54.0752C35.7419 54.0752 35.4944 53.9727 35.312 53.7902C35.1295 53.6078 35.027 53.3603 35.027 53.1022V39.035C35.027 38.7769 35.1295 38.5295 35.312 38.347C35.4944 38.1645 35.7419 38.062 36 38.062C36.258 38.062 36.5055 38.1645 36.688 38.347C36.8704 38.5295 36.9729 38.7769 36.9729 39.035V53.1022C36.9729 53.3603 36.8704 53.6078 36.688 53.7902C36.5055 53.9727 36.258 54.0752 36 54.0752Z" fill="black"/>
<path d="M36 54.0754C35.7421 54.0756 35.4947 53.9734 35.3121 53.7913L31.3998 49.8789C31.2172 49.6964 31.1146 49.4487 31.1146 49.1906C31.1146 48.9324 31.2172 48.6847 31.3998 48.5022C31.5823 48.3196 31.8299 48.217 32.0881 48.217C32.3463 48.217 32.5939 48.3196 32.7765 48.5022L36 51.7266L39.2234 48.5022C39.406 48.3196 39.6536 48.217 39.9118 48.217C40.17 48.217 40.4176 48.3196 40.6002 48.5022C40.7828 48.6847 40.8853 48.9324 40.8853 49.1906C40.8853 49.4487 40.7828 49.6964 40.6002 49.8789L36.6879 53.7913C36.5053 53.9734 36.2579 54.0756 36 54.0754Z" fill="black"/>
<path d="M35.9999 22.4946C35.7419 22.4945 35.4944 22.392 35.312 22.2095L32.1498 19.0473C31.9726 18.8638 31.8745 18.6181 31.8767 18.363C31.879 18.1078 31.9813 17.8638 32.1617 17.6834C32.3421 17.503 32.5861 17.4007 32.8412 17.3985C33.0963 17.3963 33.3421 17.4943 33.5256 17.6716L35.9999 20.1458L38.4742 17.6716C38.6577 17.4943 38.9034 17.3963 39.1586 17.3985C39.4137 17.4007 39.6577 17.503 39.8381 17.6834C40.0185 17.8638 40.1208 18.1078 40.123 18.363C40.1253 18.6181 40.0272 18.8638 39.8499 19.0473L36.6878 22.2095C36.5054 22.392 36.2579 22.4945 35.9999 22.4946Z" fill="black"/>
<path d="M58.8649 37.8111C58.6068 37.8111 58.3594 37.7086 58.1769 37.5262C57.9944 37.3437 57.8919 37.0962 57.8919 36.8382V31.2514H44.7568C44.4987 31.2514 44.2513 31.1489 44.0688 30.9664C43.8863 30.7839 43.7838 30.5364 43.7838 30.2784C43.7838 30.0203 43.8863 29.7729 44.0688 29.5904C44.2513 29.4079 44.4987 29.3054 44.7568 29.3054H58.8649C59.1229 29.3054 59.3704 29.4079 59.5529 29.5904C59.7354 29.7729 59.8379 30.0203 59.8379 30.2784V36.8382C59.8379 37.0962 59.7354 37.3437 59.5529 37.5262C59.3704 37.7086 59.1229 37.8111 58.8649 37.8111Z" fill="black"/>
<path d="M58.8648 37.8111C58.6068 37.811 58.3593 37.7085 58.1769 37.526L55.7124 35.0614C55.5297 34.879 55.4269 34.6315 55.4268 34.3733C55.4266 34.1151 55.529 33.8674 55.7114 33.6847C55.8938 33.502 56.1414 33.3992 56.3996 33.3991C56.6578 33.3989 56.9055 33.5013 57.0882 33.6837L58.8648 35.4623L60.6424 33.6837C60.825 33.5013 61.0726 33.3988 61.3307 33.3989C61.5888 33.399 61.8363 33.5016 62.0187 33.6842C62.2011 33.8668 62.3036 34.1143 62.3035 34.3724C62.3034 34.6305 62.2008 34.878 62.0182 35.0605L59.5527 37.525C59.4625 37.6155 59.3552 37.6874 59.2372 37.7365C59.1192 37.7856 58.9926 37.8109 58.8648 37.8111Z" fill="black"/>
<path d="M13.1351 37.8111C12.877 37.8111 12.6296 37.7086 12.4471 37.5262C12.2646 37.3437 12.1621 37.0962 12.1621 36.8382V30.2784C12.1621 30.0203 12.2646 29.7729 12.4471 29.5904C12.6296 29.4079 12.877 29.3054 13.1351 29.3054H27.2432C27.5012 29.3054 27.7487 29.4079 27.9312 29.5904C28.1137 29.7729 28.2162 30.0203 28.2162 30.2784C28.2162 30.5364 28.1137 30.7839 27.9312 30.9664C27.7487 31.1489 27.5012 31.2514 27.2432 31.2514H14.1081V36.8382C14.1081 37.0962 14.0055 37.3437 13.8231 37.5262C13.6406 37.7086 13.3931 37.8111 13.1351 37.8111Z" fill="black"/>
<path d="M13.1352 37.8111C12.8772 37.811 12.6297 37.7085 12.4473 37.526L9.98277 35.0614C9.8923 34.9711 9.82052 34.8638 9.77151 34.7458C9.7225 34.6277 9.69723 34.5011 9.69714 34.3733C9.69696 34.1151 9.79935 33.8674 9.98179 33.6847C10.1642 33.502 10.4118 33.3992 10.67 33.3991C10.9282 33.3989 11.1759 33.5013 11.3585 33.6837L13.1352 35.4623L14.9128 33.6837C15.0954 33.5013 15.343 33.3988 15.6011 33.3989C15.8592 33.399 16.1067 33.5016 16.2891 33.6842C16.4715 33.8668 16.574 34.1143 16.5739 34.3724C16.5738 34.6305 16.4712 34.878 16.2886 35.0605L13.8231 37.525C13.7328 37.6155 13.6256 37.6874 13.5076 37.7365C13.3896 37.7856 13.263 37.8109 13.1352 37.8111Z" fill="black"/>
</svg>
